X:1
T:Out of the Ark
T:Philip Paul Bliss
T:Out of the Ark
T:Public Domain
T:Public Domain
T:Public Domain
C:Philip Paul Bliss
Z:Public Domain
%%score ( 1 2 ) ( 3 4 )
L:1/8
M:6/8
K:Eb
V:1 treble 
V:2 treble 
V:3 bass 
V:4 bass 
V:1
 G | G^FG cBG | FEF G2 G | ABc BAG | F3- F2 F | G^FG cBG | FEF G2 B | edc BG>F | E3- E2 G | %9
w: 1.~They|dreamed not of dan- ger, those|sin- ners of old, Whom|No- ah was chos- en to|warn; * By|fre- quent trans- gress- ions their|hearts had grown cold, They|laughed his en- treat- ies to|scorn; * Yet|
w: 2.~He|could not a- rouse them, un-|heed- ing they stood, Un-|moved by his warn- ing and|prayer; * The|pro- phet passed in from the|on- com- ing flood, And|left them to hope- less de-|spair; * The|
w: 3.~O|sin- ners, the her- alds of|mer- cy im- plore, They|cry like the pa- tri- arch,|“Come”; * The|Ark of sal- va- tion is|moored to your shore, Oh,|en- ter while yet there is|room! * The|
 GGG ccc | =B=AB c2 c | edc dc=B | c3- c2 G | G^FG cBG | FEF G2 B | edc BG>F | E3- E2 || %17
w: dai- ly he called them, “Oh|come, sin- ners, come, Be-|lieve and pre- pare to em-|bark! * Re-|ceive ye the mess- age, and|know there is room For|all who will come to the|Ark.” *|
w: flood- gates were o- pened, the|del- uge came on, The|heav- ens as mid- night grew|dark; * Too|late, then they turned, ev- ery|foot- hold was gone, They|per- ished in sight of the|Ark. *|
w: storm cloud of jus- tice rolls|dark o- ver- head, And|when by its fu- ry you’re|tossed, * A-|las, of your per- ish- ing|souls ’twill be said, “They|heard— they re- fused— and were|lost!” *|
"^Refrain" [_DE] | [CE]3 [CA]2 [Ec] | [EB]3- [EB]2 [EB] | [DB][C=A][DB] [Fd][Fd]>[Ec] | %21
w: ||||
w: Then|come, come, oh,|come; * There’s|re- fuge a- lone in the|
w: ||||
 [DB]3- [DB]2 [DA] | [EG][E^F][EG] [Ec][EB][EG] | [DF][CE][DF] [EG]2 [EB] | %24
w: |||
w: Ark; * Re-|ceive ye the mess- age, and|know there is room For|
w: |||
 [Ee][Fd][^Fc] [GB][EG]>[D=F] | E3- E2 |] %26
w: ||
w: all who will come to the|Ark. *|
w: ||
V:2
 x | x6 | x6 | x6 | x6 | x6 | x6 | x6 | x6 | x6 | x6 | x6 | x6 | x6 | x6 | x6 | x5 || x | x6 | x6 | %20
 x6 | x6 | x6 | x6 | x6 | E3- E2 |] %26
V:3
 z | E,3 E,3 | B,,3 E,3 | A,,3 A,,3 | B,,3- B,,2 z | E,3 E,3 | B,,3 E,3 | C,B,,A,, G,,B,,>B,, | %8
 E,3- E,2 z | C,3 E,3 | G,3 C,3 | C,D,E, F,G,G,, | C,3- C,2 z | E,3 E,3 | B,,3 E,3 | %15
 C,B,,A,, G,,B,,>B,, | E,3- E,2 || [E,G,] | [A,,A,]3 [A,,A,]2 [A,,A,] | [E,G,]3- [E,G,]2 [E,G,] | %20
 F,F,F, [F,B,][F,B,]>[F,=A,] | [B,,B,]3- [B,,B,]2 [B,,B,] | %22
 [E,B,][E,=A,][E,B,] [E,_A,][E,G,][E,B,] | [B,,B,][B,,B,][B,,B,] [E,B,]2 [E,G,] | %24
 [C,C][B,,D][A,,E] [G,,E][B,,B,]>[B,,A,] | [E,G,]3- [E,G,]2 |] %26
V:4
 x | x6 | x6 | x6 | x6 | x6 | x6 | x6 | x6 | x6 | x6 | x6 | x6 | x6 | x6 | x6 | x5 || x | x6 | x6 | %20
 F,F,F, x3 | x6 | x6 | x6 | x6 | x5 |] %26

